X: 58
M: C|
L: 1/8
K: D
|: de |\
fedB ABdA | B2d2 d3F |\
fedf edce | dcBA BAGF |\
EFGE AGFE | D2 d4 :|


